X: 3351
T: Capt Macintosh
%R: march
B: Niel Gow & Sons "A Second Collection of Strathspey Reels, etc." v.2 p.35 #1 (top 4 staffs continued from p.34)
Z: 2022 John Chambers <jc:trillian.mit.edu>
M: 2/4
L: 1/8
K: A
% - - - - - - - - - -
V: 1 staves=2
TE |\
A>BA>B | GEETE | A>BAc | e2ec || fdd>f | e>cTcA | B>cdB | {A}G2FE || A>BAB | AEEE |
A>BAB | e2ec || f>dTd>f | e>cTc>A | TB>ABc | A2A |]| c/d/ | e>fe>f | dBBc | d>ede | cAAc || FB/c/ dB |
Gc/d/ ec | fdTB>A | {A}G2FE || !p!A>BAB | AEEE | A>BAB | e2ec || f>dTd>f | eccA | TB>ABc | A2A |]
% - - - - - - - - - -
% Voice 2 preserves the staff layout in the book.
V: 2 clef=bass middle=d
z |
a2a2 | a2a2 | c2A2 | c2a2 || b2g2 | a2A2 | d2B2 | e2E2 || A2a2 | A2A2 |
A2a2 | c'2a2 || b2g2 | a2A2 | d2e2 | A2A |]| z | c'2^a2 | b2B2 | b2e2 | a2A2 || d2B2 |
c2A2 | f2^d2 | e2E2 || !p!a2e2 | c2A2 | A2a2 | c'2a2 || b2g2 | a2c2 | d2e2 | A2A |]
